X: 15
T: Drowsy Maggie
R: reel
M: 4/4
L: 1/8
K: Edor
|: E2BE dEBE | E2BE dAFD | E2BE dEBE | BABc dAFD |
E~B3 E~B3 | E~B3 dAFD | E2BE dEBE | BABc dAFA :|
|: d2fd c2ec | d2fd faaf | defd cdec | ~B3c dAFA |
d2fd c2ec | dcde faaf | bgaf gfed | ~B3c dAFD :|


Tune 27	Setting 29583

